src/16/actions/view-calendar-month.svg

<svg xmlns="http://www.w3.org/2000/svg" viewBox="0 0 16 16">
  <defs id="defs3051">
    <style type="text/css" id="current-color-scheme">
      .ColorScheme-Text {
        color:#5d656b;
      }
      .ColorScheme-PositiveText {
        color:#27ae60;
      }
      </style>
  </defs>
 <path 
     style="fill:currentColor;fill-opacity:1;stroke:none" 
     d="m2 2v12h12v-12h-2v2h-2v-2h-4v2h-2v-2h-2m1 3h10v8h-10v-8"
     class="ColorScheme-Text"/>
 <path d="m4 6v2h2v-2h-2m3 0v2h2v-2h-2m3 0v2h2v-2h-2m-6 3v2h2v-2h-2m3 0v2h2v-2h-2m3 0v2h2v-2h-2"   style="fill:currentColor;fill-opacity:1;stroke:none" 
     class="ColorScheme-PositiveText"
    />
</svg>

<svg xmlns="http://www.w3.org/2000/svg" viewBox="0 0 16 16"><path d="M2 2v12h12V2h-2v2h-2V2H6v2H4V2H2m1 3h10v8H3V5" fill="currentColor" color="#5d656b"/><path d="M4 6v2h2V6H4m3 0v2h2V6H7m3 0v2h2V6h-2M4 9v2h2V9H4m3 0v2h2V9H7m3 0v2h2V9h-2" fill="currentColor" color="#27ae60"/></svg>
